src/assets/icons/icons8-menu.svg

<svg xmlns="http://www.w3.org/2000/svg" xmlns:xlink="http://www.w3.org/1999/xlink" viewBox="0,0,256,256" width="50px" height="50px"><g fill="#ffffff" fill-rule="nonzero" stroke="none" stroke-width="1" stroke-linecap="butt" stroke-linejoin="miter" stroke-miterlimit="10" stroke-dasharray="" stroke-dashoffset="0" font-family="none" font-weight="none" font-size="none" text-anchor="none" style="mix-blend-mode: normal"><g transform="scale(5.12,5.12)"><path d="M0,9v2h50v-2zM0,24v2h50v-2zM0,39v2h50v-2z"></path></g></g></svg>

<svg xmlns="http://www.w3.org/2000/svg"  viewBox="0 0 50 50" width="50px" height="50px"><path d="M 0 9 L 0 11 L 50 11 L 50 9 Z M 0 24 L 0 26 L 50 26 L 50 24 Z M 0 39 L 0 41 L 50 41 L 50 39 Z"/></svg>
